symbols/web/build_circle/materialsymbolsoutlined/build_circle_wght700grad200_24px.svg

<svg xmlns="http://www.w3.org/2000/svg" height="24" width="24"><path d="m15.775 17.05 1.15-1.2q.325-.3.325-.7 0-.4-.325-.7l-3.15-3.15q.05-.2.075-.475.025-.275.025-.575 0-1.575-1.087-2.65Q11.7 6.525 10.15 6.525q-.575 0-1.187.2-.613.2-1.013.5l2.075 2.05-.85.875-2.05-2.075q-.3.425-.512 1.025-.213.6-.213 1.175 0 1.55 1.075 2.637Q8.55 14 10.125 14q.225 0 .513-.025.287-.025.562-.075l3.125 3.15q.3.325.713.325.412 0 .737-.325ZM12 23.15q-2.325 0-4.362-.862-2.038-.863-3.55-2.375-1.513-1.513-2.375-3.551Q.85 14.325.85 12t.863-4.363q.862-2.037 2.375-3.55Q5.6 2.575 7.638 1.712 9.675.85 12 .85t4.363.862q2.037.863 3.55 2.375 1.512 1.513 2.375 3.55.862 2.038.862 4.363 0 2.325-.862 4.362-.863 2.038-2.375 3.551-1.513 1.512-3.55 2.375-2.038.862-4.363.862Zm0-3.4q3.275 0 5.512-2.238Q19.75 15.275 19.75 12q0-3.275-2.238-5.513Q15.275 4.25 12 4.25q-3.275 0-5.513 2.237Q4.25 8.725 4.25 12t2.237 5.512Q8.725 19.75 12 19.75ZM12 12Z"/></svg>

<svg xmlns="http://www.w3.org/2000/svg" height="24" width="24"><path d="M14.325 17.05Q14.65 17.375 15.05 17.375Q15.45 17.375 15.775 17.05L16.925 15.85Q17.25 15.525 17.25 15.137Q17.25 14.75 16.925 14.45L13.775 11.3Q13.825 11.1 13.85 10.825Q13.875 10.55 13.875 10.25Q13.875 8.675 12.788 7.6Q11.7 6.525 10.15 6.525Q9.575 6.525 8.963 6.725Q8.35 6.925 7.95 7.225L10.025 9.275L9.175 10.15L7.125 8.075Q6.825 8.5 6.613 9.1Q6.4 9.7 6.4 10.275Q6.4 11.825 7.475 12.912Q8.55 14 10.125 14Q10.35 14 10.638 13.975Q10.925 13.95 11.2 13.9ZM12 23.15Q9.675 23.15 7.638 22.288Q5.6 21.425 4.088 19.913Q2.575 18.4 1.713 16.362Q0.85 14.325 0.85 12Q0.85 9.675 1.713 7.637Q2.575 5.6 4.088 4.087Q5.6 2.575 7.638 1.712Q9.675 0.85 12 0.85Q14.325 0.85 16.363 1.712Q18.4 2.575 19.913 4.087Q21.425 5.6 22.288 7.637Q23.15 9.675 23.15 12Q23.15 14.325 22.288 16.362Q21.425 18.4 19.913 19.913Q18.4 21.425 16.363 22.288Q14.325 23.15 12 23.15ZM12 12Q12 12 12 12Q12 12 12 12Q12 12 12 12Q12 12 12 12Q12 12 12 12Q12 12 12 12Q12 12 12 12Q12 12 12 12ZM12 19.75Q15.225 19.75 17.488 17.5Q19.75 15.25 19.75 12Q19.75 8.75 17.488 6.5Q15.225 4.25 12 4.25Q8.775 4.25 6.513 6.5Q4.25 8.75 4.25 12Q4.25 15.25 6.513 17.5Q8.775 19.75 12 19.75Z"/></svg>
